public/avatar/item2/41.svg

<svg xmlns:xlink="http://www.w3.org/1999/xlink" height="99.2" width="82.2" xmlns="http://www.w3.org/2000/svg"><use height="9.9" transform="translate(33.3 71.45)" width="9.85" xlink:href="#a"/><defs><g id="a"><path d="M12.15 29.65q0 2-1.45 3.5-1.45 1.45-3.5 1.45-2 0-3.45-1.45-1.45-1.5-1.45-3.5 0-2.05 1.45-3.45 1.45-1.5 3.45-1.5 2.05 0 3.5 1.5 1.45 1.4 1.45 3.45" fill-rule="evenodd" transform="translate(-2.3 -24.7)"/><path d="M11.35 29.65q0 1.7-1.2 2.95-1.25 1.15-2.95 1.15-1.7 0-2.85-1.15-1.2-1.25-1.2-2.95 0-1.7 1.2-2.9 1.15-1.2 2.85-1.15 1.7-.05 2.95 1.15 1.2 1.2 1.2 2.9" fill="#fff" fill-rule="evenodd" transform="translate(-2.3 -24.7)"/><path d="M7.2 25.6q2.85-.05 3.8 2.5H3.45q.95-2.55 3.75-2.5" fill="#ff8409" fill-rule="evenodd" transform="translate(-2.3 -24.7)"/><path d="M7.2 33.75q-2.55 0-3.7-2.4h7.45q-1.2 2.4-3.75 2.4" fill="#4d8a51" fill-rule="evenodd" transform="translate(-2.3 -24.7)"/><path d="m8.4 29.7-.3.75-.7.3-.7-.3q-.3-.35-.3-.75t.3-.7q.25-.35.7-.25.4-.1.7.25l.3.7" fill="#06c" fill-rule="evenodd" transform="translate(-2.3 -24.7)"/><path d="M4.5 27.15q1.3-.9 2.7-.9 1.8 0 2.8 1.1" fill="none" stroke="#fff" stroke-linecap="round" stroke-linejoin="round" stroke-opacity=".6" transform="translate(-2.3 -24.7)"/><path d="M10 32.4q-1.3.9-2.7.9-1.8 0-2.8-1.1" fill="none" stroke="#000" stroke-linecap="round" stroke-linejoin="round" stroke-opacity=".302" transform="translate(-2.3 -24.7)"/></g></defs></svg>

<?xml version="1.0" encoding="UTF-8" standalone="no"?>
<svg xmlns:xlink="http://www.w3.org/1999/xlink" height="99.2px" width="82.2px" xmlns="http://www.w3.org/2000/svg">
  <g transform="matrix(1.0, 0.0, 0.0, 1.0, 31.0, 46.75)">
    <use height="9.9" transform="matrix(1.0, 0.0, 0.0, 1.0, 2.3, 24.7)" width="9.85" xlink:href="#shape0"/>
  </g>
  <defs>
    <g id="shape0" transform="matrix(1.0, 0.0, 0.0, 1.0, -2.3, -24.7)">
      <path d="M12.15 29.65 Q12.15 31.65 10.7 33.15 9.25 34.6 7.2 34.6 5.2 34.6 3.75 33.15 2.3 31.65 2.3 29.65 2.3 27.6 3.75 26.2 5.2 24.7 7.2 24.7 9.25 24.7 10.7 26.2 12.15 27.6 12.15 29.65" fill="#000000" fill-rule="evenodd" stroke="none"/>
      <path d="M11.35 29.65 Q11.35 31.35 10.15 32.6 8.9 33.75 7.2 33.75 5.5 33.75 4.35 32.6 3.15 31.35 3.15 29.65 3.15 27.95 4.35 26.75 5.5 25.55 7.2 25.6 8.9 25.55 10.15 26.75 11.35 27.95 11.35 29.65" fill="#ffffff" fill-rule="evenodd" stroke="none"/>
      <path d="M7.2 25.6 Q10.05 25.55 11.0 28.1 L3.45 28.1 Q4.4 25.55 7.2 25.6" fill="#ff8409" fill-rule="evenodd" stroke="none"/>
      <path d="M7.2 33.75 Q4.65 33.75 3.5 31.35 L10.95 31.35 Q9.75 33.75 7.2 33.75" fill="#4d8a51" fill-rule="evenodd" stroke="none"/>
      <path d="M8.4 29.7 L8.1 30.45 7.4 30.75 6.7 30.45 Q6.4 30.1 6.4 29.7 6.4 29.3 6.7 29.0 6.95 28.65 7.4 28.75 7.8 28.65 8.1 29.0 L8.4 29.7" fill="#0066cc" fill-rule="evenodd" stroke="none"/>
      <path d="M4.5 27.15 Q5.8 26.25 7.2 26.25 9.0 26.25 10.0 27.35" fill="none" stroke="#ffffff" stroke-linecap="round" stroke-linejoin="round" stroke-opacity="0.6" stroke-width="1.0"/>
      <path d="M10.0 32.4 Q8.7 33.3 7.3 33.3 5.5 33.3 4.5 32.2" fill="none" stroke="#000000" stroke-linecap="round" stroke-linejoin="round" stroke-opacity="0.3019608" stroke-width="1.0"/>
    </g>
  </defs>
</svg>
